storage/app/icons/phosphoricons/duotone/bookmark-duotone.svg

<svg xmlns="http://www.w3.org/2000/svg" fill="currentColor" viewBox="0 0 256 256"><path d="M192 176v48l-64-40-64 40v-48l64-40Z" opacity=".2"/><path d="M184 32H72a16 16 0 0 0-16 16v176a8 8 0 0 0 12.24 6.78L128 193.43l59.77 37.35A8 8 0 0 0 200 224V48a16 16 0 0 0-16-16m0 16v113.57l-51.77-32.35a8 8 0 0 0-8.48 0L72 161.56V48Zm-51.77 129.22a8 8 0 0 0-8.48 0L72 209.57v-29.14l56-35 56 35v29.14Z"/></svg>

<svg xmlns="http://www.w3.org/2000/svg" viewBox="0 0 256 256" fill="currentColor"><path d="M192,176v48l-64-40L64,224V176l64-40Z" opacity="0.2"/><path d="M184,32H72A16,16,0,0,0,56,48V224a8,8,0,0,0,12.24,6.78L128,193.43l59.77,37.35A8,8,0,0,0,200,224V48A16,16,0,0,0,184,32Zm0,16V161.57l-51.77-32.35a8,8,0,0,0-8.48,0L72,161.56V48ZM132.23,177.22a8,8,0,0,0-8.48,0L72,209.57V180.43l56-35,56,35v29.14Z"/></svg>
